@extra/phlat-icons/symbolic-22/package-broken.svg

<svg xmlns="http://www.w3.org/2000/svg" version="1.1" viewBox="-2 -2 22 22"><path style="color:#000000;text-decoration-line:none;text-transform:none;text-indent:0" fill="#f1f2f2" d="m3.4688 1a2.468 2.468 0 0 0 -2.4708 2.4688l0.00005 9.0622a2.468 2.468 0 0 0 2.4726 2.469h5.2911a4.5 4.5 0 0 1 -0.498 -1h-4.793a1.443 1.443 0 0 1 -1.4707 -1.469v-9.0603c0-0.8323 0.6367-1.4697 1.4688-1.4707h0.0019 9.0603c0.687 0 1.234 0.4375 1.407 1.0566l-5.438 5.3184-1.9375-1.9375-2.125 2.125 3 2.9995 0.582 0.583a4.5 4.5 0 0 1 4.4805 -4.145 4.5 4.5 0 0 1 0.5 0.0312l1-1.0273v1.2598a4.5 4.5 0 0 1 1 0.4961v-5.2891a2.468 2.468 0 0 0 -2.471 -2.4707h-9.0602z"/><path style="color:#f1f2f2" d="m12.5 9a3.5 3.5 0 1 0 0 7 3.5 3.5 0 0 0 0 -7zm-2.5 2.969h5v1.031h-5z" class="error" overflow="visible" fill="#c00"/></svg>

<svg xmlns="http://www.w3.org/2000/svg" viewBox="-2 -2 22 22">
    <path style="text-decoration-line:none;text-transform:none;text-indent:0" fill="#f1f2f2" d="M3.469 1A2.468 2.468 0 0 0 .998 3.469v9.062A2.468 2.468 0 0 0 3.471 15h5.29a4.5 4.5 0 0 1-.497-1H3.47A1.443 1.443 0 0 1 2 12.531v-9.06C2 2.638 2.637 2 3.469 2h9.061c.687 0 1.234.438 1.407 1.057L8.5 8.375 6.563 6.437 4.438 8.563l3 3 .582.583A4.5 4.5 0 0 1 12.5 8a4.5 4.5 0 0 1 .5.031l1-1.027v1.26a4.5 4.5 0 0 1 1 .496V3.47A2.468 2.468 0 0 0 12.53 1H3.468z" color="#000"/>
    <path d="M12.5 9a3.5 3.5 0 1 0 0 7 3.5 3.5 0 0 0 0-7zM10 11.969h5V13h-5z" class="error" overflow="visible" fill="#c00" color="#f1f2f2"/>
</svg>
